src/images/icons/expenses/health.svg

<svg width="56" height="56" viewBox="0 0 56 56" fill="none" xmlns="http://www.w3.org/2000/svg">
<path d="M55.794 31.2001L54.7975 16.6657C54.7328 15.7243 54.3047 14.8651 53.5921 14.2466C52.8794 13.6281 51.9685 13.3252 51.0274 13.3938C49.1776 13.5286 47.743 15.087 47.7613 16.9416L47.8789 28.7903L42.7464 35.3638C41.927 36.4131 40.5676 36.8344 39.3345 36.5184L44.9189 29.2664C45.8991 27.9935 45.7361 26.1495 44.5482 25.0683C43.9139 24.4909 43.0938 24.2057 42.2377 24.2656C41.3821 24.3254 40.6092 24.7216 40.0612 25.3815L31.6249 35.5413C30.2336 37.217 29.4791 39.3391 29.5002 41.517L29.6312 55.0092C29.6364 55.5469 30.0734 55.9802 30.6112 55.981L44.6585 56.0001C44.6589 56.0001 44.6594 56.0001 44.6598 56.0001C44.9346 56.0001 45.1968 55.8849 45.3826 55.6825C45.5688 55.4797 45.6613 55.2082 45.6374 54.9338L45.064 48.3295L54.3892 35.9362C55.4114 34.578 55.9102 32.8959 55.794 31.2001ZM52.821 34.7564L43.2698 47.4501C43.1243 47.6435 43.0553 47.8839 43.0762 48.125L43.5894 54.036L31.5845 54.0197L31.4629 41.498C31.4462 39.784 32.0401 38.114 33.1351 36.7953L41.5713 26.6353C41.7735 26.3918 42.0587 26.2456 42.3744 26.2237C42.6901 26.2012 42.993 26.3067 43.2271 26.5199C43.6656 26.9189 43.7256 27.5994 43.3638 28.069L37.0267 36.2986C36.8605 36.5143 36.7915 36.7894 36.8361 37.058C36.8808 37.3266 37.035 37.5647 37.2619 37.7151C39.5298 39.2193 42.6187 38.7171 44.2934 36.5719L49.6372 29.7278C49.774 29.5527 49.8472 29.3363 49.8451 29.1141L49.7241 16.9223C49.7158 16.1013 50.3511 15.4113 51.1701 15.3515C51.5885 15.3214 51.9901 15.4553 52.3056 15.729C52.6212 16.0029 52.8107 16.3832 52.8393 16.8001L53.8359 31.3345C53.9197 32.5597 53.5595 33.7749 52.821 34.7564Z" fill="#071F41"/>
<path d="M15.9387 25.3813C15.3907 24.7214 14.6178 24.325 13.7622 24.2654C12.9071 24.2057 12.0861 24.4907 11.452 25.068C10.2638 26.1493 10.1009 27.9934 11.0811 29.2663L16.6656 36.5183C15.4333 36.8339 14.073 36.4131 13.2536 35.3637L8.121 28.7902L8.23864 16.9415C8.25696 15.0869 6.82245 13.5285 4.97263 13.3937C4.03287 13.3256 3.12097 13.6278 2.40797 14.2465C1.69537 14.865 1.26723 15.7242 1.20259 16.6656L0.205905 31.1999C0.0895796 32.8957 0.588509 34.5778 1.61045 35.9361L10.9358 48.3294L10.3625 54.9337C10.3385 55.2079 10.431 55.4796 10.6172 55.6824C10.8032 55.8848 11.0654 56 11.34 56C11.3404 56 11.341 56 11.3413 56L25.3886 55.9809C25.9264 55.9801 26.3634 55.5468 26.3686 55.009L26.4998 41.5169C26.5208 39.3391 25.7663 37.217 24.375 35.5413L15.9387 25.3813ZM24.4155 54.0194L12.4106 54.0358L12.9238 48.1248C12.9448 47.8836 12.8759 47.6432 12.7303 47.4498L3.17894 34.7561C2.44043 33.7747 2.0802 32.5594 2.16407 31.3343L3.16075 16.7999C3.18941 16.383 3.37888 16.0026 3.69449 15.7287C3.98066 15.4804 4.33905 15.3471 4.71407 15.3471C4.75254 15.3471 4.79114 15.3485 4.83 15.3512C5.64899 15.4109 6.284 16.1009 6.27589 16.9221L6.15485 29.1139C6.15263 29.3361 6.22591 29.5525 6.36277 29.7276L11.7065 36.5717C13.3816 38.7168 16.4701 39.2187 18.7381 37.715C18.965 37.5645 19.1193 37.3265 19.1639 37.0579C19.2085 36.7893 19.1395 36.5141 18.9734 36.2983L12.6361 28.0689C12.2744 27.5992 12.3345 26.9187 12.7731 26.5197C13.0072 26.3065 13.3097 26.2017 13.6256 26.2234C13.9413 26.2454 14.2266 26.3917 14.4287 26.6352L22.865 36.7951C23.96 38.114 24.5539 39.784 24.5371 41.4979L24.4155 54.0194Z" fill="#071F41"/>
<path d="M47.2247 11.0429C47.2247 8.09331 46.0759 5.32022 43.9902 3.23447C41.9044 1.1486 39.1315 0 36.1817 0C33.2321 0 30.459 1.1486 28.3731 3.23434L28 3.60766L27.6266 3.23434C25.541 1.1486 22.7679 0 19.8182 0C16.8686 0 14.0955 1.1486 12.0096 3.23434C7.70413 7.53995 7.70413 14.5456 12.0097 18.8514L27.3059 34.1476C27.4976 34.3391 27.7489 34.4351 28 34.4351C28.2511 34.4351 28.5023 34.3393 28.694 34.1476L43.9902 18.8513C46.0759 16.7656 47.2247 13.9925 47.2247 11.0429ZM28.0001 32.0659L13.3977 17.4635C9.85726 13.9231 9.85726 8.16253 13.3977 4.62213C15.1126 2.90722 17.3929 1.96275 19.8182 1.96275C22.2436 1.96275 24.5238 2.90722 26.2389 4.62227L27.3061 5.68948C27.49 5.87358 27.7396 5.97695 28 5.97695C28.2604 5.97695 28.5099 5.87345 28.694 5.68948L29.7611 4.62227C31.4761 2.90722 33.7564 1.96275 36.1817 1.96275C38.6072 1.96275 40.8874 2.90722 42.6023 4.62227C44.3173 6.33731 45.2619 8.6175 45.2619 11.0429C45.2619 13.4684 44.3173 15.7485 42.6023 17.4636L28.0001 32.0659Z" fill="#071F41"/>
</svg>

<!-- Generated by IcoMoon.io -->
<svg version="1.1" xmlns="http://www.w3.org/2000/svg" width="56" height="56" viewBox="0 0 56 56">
<title>health</title>
<path d="M55.794 31.2l-0.997-14.534c-0.065-0.941-0.493-1.801-1.205-2.419s-1.624-0.921-2.565-0.853c-1.85 0.135-3.284 1.693-3.266 3.548l0.118 11.849-5.132 6.573c-0.819 1.049-2.179 1.471-3.412 1.155l5.584-7.252c0.98-1.273 0.817-3.117-0.371-4.198-0.634-0.577-1.454-0.863-2.31-0.803s-1.628 0.456-2.177 1.116l-8.436 10.16c-1.391 1.676-2.146 3.798-2.125 5.976l0.131 13.492c0.005 0.538 0.442 0.971 0.98 0.972l14.047 0.019c0 0 0.001 0 0.001 0 0.275 0 0.537-0.115 0.723-0.318s0.279-0.474 0.255-0.749l-0.573-6.604 9.325-12.393c1.022-1.358 1.521-3.040 1.405-4.736zM52.821 34.756l-9.551 12.694c-0.146 0.193-0.214 0.434-0.194 0.675l0.513 5.911-12.005-0.016-0.122-12.522c-0.017-1.714 0.577-3.384 1.672-4.703l8.436-10.16c0.202-0.244 0.487-0.39 0.803-0.412s0.619 0.083 0.853 0.296c0.438 0.399 0.498 1.079 0.137 1.549l-6.337 8.23c-0.166 0.216-0.235 0.491-0.191 0.759s0.199 0.507 0.426 0.657c2.268 1.504 5.357 1.002 7.032-1.143l5.344-6.844c0.137-0.175 0.21-0.392 0.208-0.614l-0.121-12.192c-0.008-0.821 0.627-1.511 1.446-1.571 0.418-0.030 0.82 0.104 1.135 0.378s0.505 0.654 0.534 1.071l0.997 14.534c0.084 1.225-0.276 2.44-1.015 3.422z"></path>
<path d="M15.939 25.381c-0.548-0.66-1.321-1.056-2.177-1.116s-1.676 0.225-2.31 0.803c-1.188 1.081-1.351 2.925-0.371 4.198l5.585 7.252c-1.232 0.316-2.593-0.105-3.412-1.155l-5.133-6.573 0.118-11.849c0.018-1.855-1.416-3.413-3.266-3.548-0.94-0.068-1.852 0.234-2.565 0.853s-1.141 1.478-1.205 2.419l-0.997 14.534c-0.116 1.696 0.383 3.378 1.405 4.736l9.325 12.393-0.573 6.604c-0.024 0.274 0.069 0.546 0.255 0.749s0.448 0.318 0.723 0.318c0 0 0.001 0 0.001 0l14.047-0.019c0.538-0.001 0.975-0.434 0.98-0.972l0.131-13.492c0.021-2.178-0.734-4.3-2.125-5.976l-8.436-10.16zM24.416 54.019l-12.005 0.016 0.513-5.911c0.021-0.241-0.048-0.482-0.193-0.675l-9.551-12.694c-0.738-0.981-1.099-2.197-1.015-3.422l0.997-14.534c0.029-0.417 0.218-0.797 0.534-1.071 0.286-0.248 0.645-0.382 1.020-0.382 0.038 0 0.077 0.001 0.116 0.004 0.819 0.060 1.454 0.75 1.446 1.571l-0.121 12.192c-0.002 0.222 0.071 0.439 0.208 0.614l5.344 6.844c1.675 2.145 4.764 2.647 7.032 1.143 0.227-0.151 0.381-0.389 0.426-0.657s-0.024-0.544-0.19-0.76l-6.337-8.229c-0.362-0.47-0.302-1.15 0.137-1.549 0.234-0.213 0.537-0.318 0.853-0.296s0.601 0.168 0.803 0.412l8.436 10.16c1.095 1.319 1.689 2.989 1.672 4.703l-0.122 12.522z"></path>
<path d="M47.225 11.043c0-2.95-1.149-5.723-3.234-7.808s-4.859-3.234-7.809-3.234c-2.95 0-5.723 1.149-7.809 3.234l-0.373 0.373-0.373-0.373c-2.086-2.086-4.859-3.234-7.808-3.234s-5.723 1.149-7.809 3.234c-4.305 4.306-4.305 11.311 0 15.617l15.296 15.296c0.192 0.192 0.443 0.287 0.694 0.287s0.502-0.096 0.694-0.287l15.296-15.296c2.086-2.086 3.234-4.859 3.234-7.808zM28 32.066l-14.602-14.602c-3.54-3.54-3.54-9.301 0-12.841 1.715-1.715 3.995-2.659 6.42-2.659s4.706 0.944 6.421 2.66l1.067 1.067c0.184 0.184 0.434 0.287 0.694 0.287s0.51-0.104 0.694-0.287l1.067-1.067c1.715-1.715 3.995-2.66 6.421-2.66s4.706 0.944 6.421 2.66c1.715 1.715 2.66 3.995 2.66 6.421s-0.945 4.706-2.66 6.421l-14.602 14.602z"></path>
</svg>
